X:1
T:Hail Him the King of Glory
T:Henry de Fluiter, 1916
T:Hail Him the King of Glory
T:Public Domain
T:Public Domain
C:Henry de Fluiter, 1916
Z:Public Domain
%%score ( 1 2 ) ( 3 4 )
L:1/8
M:4/4
K:Ab
V:1 treble 
V:2 treble 
V:3 bass 
V:4 bass 
V:1
 [Ec]2 [Ec][=D=B] [Ec]2 [=E_B]2 | [FA]2 [FA][FB] [FA]2 [DF]2 | [CE]2 [EA]2 [EG]2 [EA]2 | [EB]8 | %4
w: 1.~Tell it to ev- ery|kin- dred and na- tion,|Tell it far and|near;|
w: 2.~Na- tions a- gain in|strife and com- mo- tion,|Warn- ings by the|way;|
w: 3.~Child- ren of God look|up with re- joic- ing;|Shout and sing His|praise;|
 [GB]2 [GB][Gc] [Gd]2 [GB]2 | A2 [EA][EB] [Ec]2 [EA]2 | [EG]2 [EG][EA] [GB]2 [Gc]2 | [EA]8 || %8
w: Earth’s dark- est night will|fade with the dawn- ing,|sus will soon ap- pear.||
w: Signs in the heav- ens,|un- err- ing o- mens,|ald the glor- ious day.|Hail|
w: Bles- sèd are they who,|wait- ing and watch- ing,|for the dawn- ing rays.||
"^Refrain" [Ec]4 [=Ec]3 [Ec] | [Fc]2 [FB]2 [FA]2 [DF]2 | [CE]2 [EA]2 [EG]2 [EA]2 | %11
w: |||
w: Him the King|of glo- ry, Once|the Lamb for sin-|
w: |||
 [Ed]2 [Ec]2 [EB]4 | [Ec]4 [_Gc]3 [GA] | [FB]2 [FA]2 [EG]2 [DF]2 | [CE]2 [Ec]2 [Ec]2 [DB]2 | %15
w: ||||
w: ners slain; Tell,|tell the won-|drous sto- ry, “Je-|sus comes to reign.”|
w: ||||
 [CA]8 |] %16
w: |
w: |
w: |
V:2
 x8 | x8 | x8 | x8 | x8 | A2 x6 | x8 | x8 || x8 | x8 | x8 | x8 | x8 | x8 | x8 | x8 |] %16
w: |||||Je-|||||||||||
w: |||||Her-|||||||||||
w: |||||Look|||||||||||
V:3
 [A,,A,]2 [A,,A,][A,,A,] [A,,A,]2 [C,G,]2 | [D,F,]2 [D,A,][D,A,] [D,D]2 [D,A,]2 | %2
 [A,,A,]2 [A,,C]2 [B,,D]2 [C,A,]2 | [E,G,]8 | [E,D]2 [E,D][E,C] [E,B,]2 (E,D,) | %5
 [C,E]2 [C,A,][E,G,] A,2 [A,,C]2 | [E,B,]2 [E,B,][E,C] [E,D]2 [E,E]2 | [A,,A,C]8 || %8
 A,4 [A,C]3 [A,C] | [D,D]2 [D,D]2 (D,E,)(F,G,) | A,2 [C,A,]2 [B,,D]2 [A,,C]2 | %11
 [G,,B,]2 [A,,A,]2 [E,G,]4 | A,4 [A,E]3 [A,C] | [D,D]2 [D,D]2 [D,D]2 [D,A,]2 | %14
 [E,A,]2 [E,A,]2 [E,G,]2 E,2 | [A,,E,]8 |] %16
V:4
 x8 | x8 | x8 | x8 | x6 E2 | x4 A,2 x2 | x8 | x8 || A,4 x4 | x4 A,2 A,2 | A,2 x6 | x8 | A,4 x4 | %13
 x8 | x6 E,2 | x8 |] %16

